X: 2
T: The Tongs By The Fire
R: jig
M: 6/8
L: 1/8
K: Gmaj
|: E/F/ || GBd cAF | dge dBG | cec BdB | ABG FED |
GBd cAF | Gge dBG | cec Bag | fef g2 :|
|: f || gdB gdB | gfa gdB | gfg eag | fd^c def |
gbg faf | e/f/ge def | gdB AGA | BGF G2 :|


Tune 1569	Setting 29403

